X:1
T:Title
%%score ( 1 2 ) { 3 | 4 }
L:1/8
Q:1/4=83
M:4/8
K:Ab
V:1 treble nm="Grand Piano, Soprano"
V:2 treble 
V:3 bass nm="Choir Pad, Magill, 11.11.11.11"
V:4 bass 
V:1
 [CA]/[DB]/ [Ec]2 [FA] | [DF] [CE]2 [CA] | [CA] [DB]2 [CA] | [DB] [Ec]3 | [CA]/[DB]/ [Ec]2 [FA] | %5
w: By~Theodore~Edson~Perkins,~1860 * * *|||||
 [DF] [CE]2 [EA] | [EA][DF][FB][EA] | [EG] [EA]3 | [EG] [EG]2 [EG] | [EA] [EB]2 [EB] | [EA]GA[EB] | %11
w: ||||||
 [Ec] [Gd]3 | c/d/[Ae][Ec][DB] | [CA]D-[DG][EA] | [FB] [Ec]2 [Ec] | [DB] [CA]3- | [CA]3 z |] %17
w: ||||||
V:2
 x4 | x4 | x4 | x4 | x4 | x4 | x4 | x4 | x4 | x4 | z E2 z | x4 | A z z2 | z F z2 | x4 | x4 | x4 |] %17
V:3
 A, A,2 A, | A, A,2 A, | A, G,2 A, | G, A,3 | A, A,2 A, | A, A,2 A, | A,A,[K:treble]DC | B, C3 | %8
 B, B,2 B, | C D2 D | C[K:bass]B,CG, | A, B,3 | A,/B,/CA,G, | A,A,B,A, | A, A,2 A, | G, A,3- | %16
 A,3 z |] %17
V:4
 A,, A,,2 D, | F, z z A,, | A,, E,2 E, | E, z z2 | A,, A,,2 D, | F, z z C, | C, D,2 E, | E, A,,3 | %8
 E, E,2 E, | E, E,2 E, | E, E,2 E, | E, E,3 | z A, z E, | F, D,2 C, | D, E,2 E, | E, A,,3- | %16
 A,,3 z |] %17

